blockchains/qtum/logo.svg

<svg fill="none" height="250" viewBox="0 0 250 250" width="250" xmlns="http://www.w3.org/2000/svg"><g fill="#2ea6df"><path d="m79.4393 222.08h62.7337l50.701-36.799 19.392-59.58-19.392-59.5793-50.701-36.799h-62.7337l-50.7009 36.5654-19.39254 59.5799 19.39254 59.579zm63.7847 3.388h-64.9529l-.4673-.351-52.1028-37.85-19.97663-61.683 20.09343-61.7987 52.4533-38.0841h64.9529l52.57 38.2009 20.094 61.7989-20.094 61.799z"/><path d="m85.5141 27.3365c0 4.2056-3.3878 7.4766-7.4766 7.4766-4.2056 0-7.4766-3.3878-7.4766-7.4766s3.3878-7.4766 7.4766-7.4766 7.4766 3.3878 7.4766 7.4766zm64.4859 0c0 4.2056-3.388 7.4766-7.477 7.4766-4.205 0-7.476-3.3878-7.476-7.4766s3.388-7.4766 7.476-7.4766c4.089 0 7.477 3.3878 7.477 7.4766zm-64.0186 195.3275c0 4.205-3.3878 7.476-7.4766 7.476-4.2056 0-7.4766-3.388-7.4766-7.476 0-4.089 3.3878-7.477 7.4766-7.477 4.0888-.117 7.4766 3.271 7.4766 7.477zm-51.6355-36.332c0 4.205-3.3878 7.476-7.4766 7.476s-7.4767-3.387-7.4767-7.476c0-4.206 3.3879-7.477 7.4767-7.477s7.4766 3.271 7.4766 7.477zm-19.2757-60.748c0 4.206-3.3878 7.477-7.47662 7.477-4.20561 0-7.476637-3.388-7.476637-7.477 0-4.205 3.387847-7.476 7.476637-7.476 4.08882-.117 7.47662 3.271 7.47662 7.476zm19.2757-60.5139c0 4.2057-3.3878 7.4767-7.4766 7.4767s-7.4767-3.3879-7.4767-7.4767c0-4.2056 3.3879-7.4766 7.4767-7.4766s7.4766 3.271 7.4766 7.4766zm172.0791 60.3969c0 4.206 3.388 7.477 7.477 7.477s7.477-3.388 7.477-7.477c0-4.088-3.388-7.476-7.477-7.476s-7.477 3.271-7.477 7.476zm-19.275-60.5137c0 4.2056 3.387 7.4767 7.476 7.4767 4.206 0 7.477-3.3879 7.477-7.4767 0-4.2056-3.388-7.4766-7.477-7.4766-4.205 0-7.476 3.271-7.476 7.4766zm-36.566 157.7107c0 4.205-3.388 7.476-7.476 7.476-4.089 0-7.477-3.388-7.477-7.476 0-4.089 3.388-7.477 7.477-7.477 4.088 0 7.476 3.271 7.476 7.477z"/><path d="m71.0282 169.86.5841.234 41.9397 14.135 47.429-14.252 32.01 13.668v-116.1214l-32.01 13.6682-47.429-14.2523-42.5238 14.1355-.5842-.1168-41.8224-13.5514v116.1212zm125.3508 18.692-35.631-15.187-47.196 14.252-42.407-14.252-45.7944 14.836v-125.4671l45.7944 14.8364 42.407-14.2523.467.1168 46.729 14.0187 35.631-15.1869z"/><path d="m7.47681 128.715v-4.839l206.54219-.161v4.677z"/><path d="m115.421 65.3039 24.649 55.4911 18.809-41.5893-16.94-48.3644zm-42.6406 13.785 16.5888 41.8221 22.0798-55.4903-32.2434-34.229zm-43.5748 46.4951 41.1215 42.991 17.0561-42.991-17.0561-43.1072zm62.0327 0 22.3127 55.841 24.65-56.425-24.65-55.4905zm-18.4579 46.262 6.8925 47.079 31.7761-33.411-22.0798-55.257zm42.6406 13.785 26.986 33.528 16.472-47.43-18.809-42.406zm-38.0845 40.771-7.944-53.972-44.8598-46.846 44.8598-47.0792 7.3598-55.0234 36.5657 38.9019 29.789-38.6682 19.51 55.7243-20.678 45.5606 20.678 46.495-18.925 54.557-30.374-37.617z"/><path d="m162.15 172.664-2.804-2.103 33.178-44.977-33.178-45.2099 2.804-2.1028 34.579 47.3127zm-99.1825-93.3413c0 4.2056 3.3879 7.4767 7.4767 7.4767 4.2056 0 7.4766-3.3879 7.4766-7.4767s-3.3879-7.4766-7.4766-7.4766c-4.0888 0-7.4767 3.271-7.4767 7.4766zm42.9905-14.2523c0 4.2056 3.388 7.4766 7.477 7.4766 4.205 0 7.476-3.3878 7.476-7.4766 0-4.2056-3.387-7.4766-7.476-7.4766-4.206 0-7.477 3.271-7.477 7.4766z"/><path d="m166.122 74.0654c-2.921-2.9205-7.711-2.9205-10.631 0-2.921 2.9206-2.921 7.7103 0 10.6309 2.92 2.9205 7.71 2.9205 10.631 0 2.92-3.0374 2.92-7.7103 0-10.6309zm-131.7762 50.9346c0-4.206-3.3878-7.477-7.4766-7.477s-7.4766 3.388-7.4766 7.477c0 4.206 3.3878 7.477 7.4766 7.477s7.4766-3.271 7.4766-7.477zm61.0982 0c0-4.206-3.3879-7.477-7.4767-7.477-4.2056 0-7.4766 3.388-7.4766 7.477 0 4.206 3.3879 7.477 7.4766 7.477 4.0888 0 7.4767-3.271 7.4767-7.477zm51.051 0c0-4.206-3.387-7.477-7.476-7.477-4.206 0-7.477 3.388-7.477 7.477 0 4.206 3.388 7.477 7.477 7.477s7.476-3.271 7.476-7.477zm55.608.584c0-4.206-3.388-7.477-7.477-7.477s-7.476 3.388-7.476 7.477c0 4.206 3.387 7.477 7.476 7.477s7.477-3.388 7.477-7.477zm-33.879 46.028c0-4.205-3.388-7.476-7.476-7.476-4.206 0-7.477 3.387-7.477 7.476s3.388 7.477 7.477 7.477c4.205 0 7.476-3.271 7.476-7.477zm81.659 37.851c0-5.842-4.789-10.631-10.631-10.631-5.841 0-10.63 4.789-10.63 10.631 0 5.841 4.789 10.63 10.63 10.63 5.842 0 10.631-4.789 10.631-10.63zm-139.369-30.374c-3.855 1.635-5.607 6.075-3.972 9.813 1.636 3.855 6.075 5.607 9.813 3.972 3.855-1.636 5.608-6.075 3.972-9.813-1.635-3.739-5.958-5.491-9.813-3.972zm-42.9906-14.369c-3.8551 1.635-5.6075 6.074-3.9719 9.813 1.6355 3.855 6.0747 5.607 9.813 3.972 3.8552-1.636 5.6075-6.075 3.972-9.813-1.6355-3.856-5.9579-5.608-9.8131-3.972z"/><path d="m238.435 210.981-44.977-23.247 1.636-3.038 44.976 23.248z"/></g></svg>

<svg width="250" height="250" viewBox="0 0 250 250" fill="none" xmlns="http://www.w3.org/2000/svg">
<path d="M79.4393 222.08H142.173L192.874 185.281L212.266 125.701L192.874 66.1217L142.173 29.3227H79.4393L28.7384 65.8881L9.34586 125.468L28.7384 185.047L79.4393 222.08ZM143.224 225.468H78.2711L77.8038 225.117L25.701 187.267L5.72437 125.584L25.8178 63.7853L78.2711 25.7012H143.224L195.794 63.9021L215.888 125.701L195.794 187.5L143.224 225.468Z" fill="#2EA6DF"/>
<path d="M85.5141 27.3365C85.5141 31.5421 82.1263 34.8131 78.0375 34.8131C73.8319 34.8131 70.5609 31.4253 70.5609 27.3365C70.5609 23.2477 73.9487 19.8599 78.0375 19.8599C82.1263 19.8599 85.5141 23.2477 85.5141 27.3365ZM150 27.3365C150 31.5421 146.612 34.8131 142.523 34.8131C138.318 34.8131 135.047 31.4253 135.047 27.3365C135.047 23.2477 138.435 19.8599 142.523 19.8599C146.612 19.8599 150 23.2477 150 27.3365ZM85.9814 222.664C85.9814 226.869 82.5936 230.14 78.5048 230.14C74.2992 230.14 71.0282 226.752 71.0282 222.664C71.0282 218.575 74.416 215.187 78.5048 215.187C82.5936 215.07 85.9814 218.458 85.9814 222.664ZM34.3459 186.332C34.3459 190.537 30.9581 193.808 26.8693 193.808C22.7805 193.808 19.3926 190.421 19.3926 186.332C19.3926 182.126 22.7805 178.855 26.8693 178.855C30.9581 178.855 34.3459 182.126 34.3459 186.332ZM15.0702 125.584C15.0702 129.79 11.6824 133.061 7.59358 133.061C3.38797 133.061 0.116943 129.673 0.116943 125.584C0.116943 121.379 3.50479 118.108 7.59358 118.108C11.6824 117.991 15.0702 121.379 15.0702 125.584ZM34.3459 65.0701C34.3459 69.2758 30.9581 72.5468 26.8693 72.5468C22.7805 72.5468 19.3926 69.1589 19.3926 65.0701C19.3926 60.8645 22.7805 57.5935 26.8693 57.5935C30.9581 57.5935 34.3459 60.8645 34.3459 65.0701ZM206.425 125.467C206.425 129.673 209.813 132.944 213.902 132.944C217.991 132.944 221.379 129.556 221.379 125.467C221.379 121.379 217.991 117.991 213.902 117.991C209.813 117.991 206.425 121.262 206.425 125.467ZM187.15 64.9533C187.15 69.1589 190.537 72.43 194.626 72.43C198.832 72.43 202.103 69.0421 202.103 64.9533C202.103 60.7477 198.715 57.4767 194.626 57.4767C190.421 57.4767 187.15 60.7477 187.15 64.9533ZM150.584 222.664C150.584 226.869 147.196 230.14 143.108 230.14C139.019 230.14 135.631 226.752 135.631 222.664C135.631 218.575 139.019 215.187 143.108 215.187C147.196 215.187 150.584 218.458 150.584 222.664Z" fill="#2EA6DF"/>
<path d="M71.0282 169.86L71.6123 170.094L113.552 184.229L160.981 169.977L192.991 183.645V67.5236L160.981 81.1918L113.552 66.9395L71.0282 81.075L70.444 80.9582L28.6216 67.4068V183.528L71.0282 169.86ZM196.379 188.552L160.748 173.365L113.552 187.617L71.145 173.365L25.3506 188.201V62.7339L71.145 77.5703L113.552 63.318L114.019 63.4348L160.748 77.4535L196.379 62.2666V188.552Z" fill="#2EA6DF"/>
<path d="M7.47681 128.715V123.876L214.019 123.715V128.392L7.47681 128.715Z" fill="#2EA6DF"/>
<path d="M115.421 65.3039L140.07 120.795L158.879 79.2057L141.939 30.8413L115.421 65.3039ZM72.7804 79.0889L89.3692 120.911L111.449 65.4207L79.2056 31.1917L72.7804 79.0889ZM29.2056 125.584L70.3271 168.575L87.3832 125.584L70.3271 82.4768L29.2056 125.584ZM91.2383 125.584L113.551 181.425L138.201 125L113.551 69.5095L91.2383 125.584ZM72.7804 171.846L79.6729 218.925L111.449 185.514L89.3692 130.257L72.7804 171.846ZM115.421 185.631L142.407 219.159L158.879 171.729L140.07 129.323L115.421 185.631ZM77.3365 226.402L69.3925 172.43L24.5327 125.584L69.3925 78.5048L76.7523 23.4814L113.318 62.3833L143.107 23.7151L162.617 79.4394L141.939 125L162.617 171.495L143.692 226.052L113.318 188.435L77.3365 226.402Z" fill="#2EA6DF"/>
<path d="M162.15 172.664L159.346 170.561L192.524 125.584L159.346 80.3741L162.15 78.2713L196.729 125.584L162.15 172.664ZM62.9675 79.3227C62.9675 83.5283 66.3554 86.7994 70.4442 86.7994C74.6498 86.7994 77.9208 83.4115 77.9208 79.3227C77.9208 75.2339 74.5329 71.8461 70.4442 71.8461C66.3554 71.8461 62.9675 75.1171 62.9675 79.3227ZM105.958 65.0704C105.958 69.276 109.346 72.547 113.435 72.547C117.64 72.547 120.911 69.1592 120.911 65.0704C120.911 60.8648 117.524 57.5938 113.435 57.5938C109.229 57.5938 105.958 60.8648 105.958 65.0704Z" fill="#2EA6DF"/>
<path d="M166.122 74.0654C163.201 71.1449 158.411 71.1449 155.491 74.0654C152.57 76.986 152.57 81.7757 155.491 84.6963C158.411 87.6168 163.201 87.6168 166.122 84.6963C169.042 81.6589 169.042 76.986 166.122 74.0654ZM34.3458 125C34.3458 120.794 30.958 117.523 26.8692 117.523C22.7804 117.523 19.3926 120.911 19.3926 125C19.3926 129.206 22.7804 132.477 26.8692 132.477C30.958 132.477 34.3458 129.206 34.3458 125ZM95.444 125C95.444 120.794 92.0561 117.523 87.9673 117.523C83.7617 117.523 80.4907 120.911 80.4907 125C80.4907 129.206 83.8786 132.477 87.9673 132.477C92.0561 132.477 95.444 129.206 95.444 125ZM146.495 125C146.495 120.794 143.108 117.523 139.019 117.523C134.813 117.523 131.542 120.911 131.542 125C131.542 129.206 134.93 132.477 139.019 132.477C143.108 132.477 146.495 129.206 146.495 125ZM202.103 125.584C202.103 121.378 198.715 118.107 194.626 118.107C190.537 118.107 187.15 121.495 187.15 125.584C187.15 129.79 190.537 133.061 194.626 133.061C198.715 133.061 202.103 129.673 202.103 125.584ZM168.224 171.612C168.224 167.407 164.836 164.136 160.748 164.136C156.542 164.136 153.271 167.523 153.271 171.612C153.271 175.701 156.659 179.089 160.748 179.089C164.953 179.089 168.224 175.818 168.224 171.612ZM249.883 209.463C249.883 203.621 245.094 198.832 239.252 198.832C233.411 198.832 228.622 203.621 228.622 209.463C228.622 215.304 233.411 220.093 239.252 220.093C245.094 220.093 249.883 215.304 249.883 209.463ZM110.514 179.089C106.659 180.724 104.907 185.164 106.542 188.902C108.178 192.757 112.617 194.509 116.355 192.874C120.21 191.238 121.963 186.799 120.327 183.061C118.692 179.322 114.369 177.57 110.514 179.089ZM67.5234 164.72C63.6683 166.355 61.9159 170.794 63.5515 174.533C65.187 178.388 69.6262 180.14 73.3645 178.505C77.2197 176.869 78.972 172.43 77.3365 168.692C75.701 164.836 71.3786 163.084 67.5234 164.72Z" fill="#2EA6DF"/>
<path d="M238.435 210.981L193.458 187.734L195.094 184.696L240.07 207.944L238.435 210.981Z" fill="#2EA6DF"/>
</svg>
